X:1519
T:Black Mountain Reel
% Nottingham Music Database
S:via PR
M:4/4
L:1/4
K:A
A/2B/2|\
P:bA
"A"cf/2f/2 e/2c/2A/2B/2|cf/2f/2 e/2c/2A/2B/2|"A"cf/2f/2 "D"e/2c/2A/2B/2|\
"Bm"c/2B/2A/2F/2 "E"E/2F/2A/2B/2|
"A"cf/2f/2 e/2c/2A/2B/2|cf/2f/2 e/2c/2A/2B/2|"A"cf/2f/2 "D"e/2c/2A/2B/2|\
"E"c/2B/2A/2F/2 "A"A:|
P:bB1
A/2B/2|:"A"+ce++c/2e/2++c/2 e/2 ++B/2e/2++c/2e/2++c/2e/2+c/2|\
"A"c/2B/2A/2F/2 E/2F/2A/2B/2|cc/2c/2 c/2B/2A/2F/2|"E"E/2F/2E/2D/2 "A"C/2B,/2A,:|
"A"\
P:bC
+C2 E2 ++CE++B,E+|"A"+A,2 E2 ++CE++EA+|"D"+F2 A2 +F/2E/2D/2E/2|+F2 A2 +ED|\
"A"+C2 E2 ++CE++B,E+|
"A"+A,2 E2 +CE|"E"G2 A2|B/2c/2B/2A/2 G/2F/2E/2D/2|"A"+C2 E2 ++CE++B,E+|\
"A"+A,2 E2 ++CE++EA+|
"D"+F2 A2 +F/2E/2D/2E/2|+F2 A2 +GF|"A"E2 CE|"E"DE FG|A2 -A2|A2 -A||


